app/dist/common/images/nari-technology.svg

<svg height="18" viewBox="0 0 18 18" width="18" xmlns="http://www.w3.org/2000/svg"><path d="m0 0h18v18h-18z" fill="#f0f3fa"/><path d="m2 11v-4h1.17l1.83 2.63v-2.63h.7v4h-1.14l-1.9-2.77v2.77zm5.8-4-1.3 4h.63l.22-.67h1.5l.26.67h1.09l-1.32-4zm.87 2.84h-1.16l.53-1.66zm6.33-2.84h1v4h-1zm-3.1 0h1.25a1 1 0 1 1 0 2h-1.15v2h-1v-4zm.1.33h.5c.28 0 .5.2.5.46v.57c0 .26-.22.46-.5.46h-.5zm1.34 1.67c.56.22.83 1.43.9 2h-1.08c0-1.46-.55-1.94-.81-2z" fill="#004679" fill-rule="evenodd"/></svg>

<!-- by TradingView --><svg width="18" height="18" viewBox="0 0 18 18" xmlns="http://www.w3.org/2000/svg"><path fill="#F0F3FA" d="M0 0h18v18H0z"/><path fill-rule="evenodd" d="M2 11V7h1.17L5 9.63V7h.7v4H4.56l-1.9-2.77V11H2Zm5.8-4-1.3 4h.63l.22-.67h1.5l.26.67h1.09L8.88 7H7.8Zm.87 2.84H7.51l.53-1.66.63 1.66ZM15 7h1v4h-1V7Zm-3.1 0h1.25a1 1 0 1 1 0 2H12v2h-1V7h.9Zm.1.33h.5c.28 0 .5.2.5.46v.57c0 .26-.22.46-.5.46H12V7.33ZM13.34 9c.56.22.83 1.43.9 2h-1.08c0-1.46-.55-1.94-.81-2h.99Z" fill="#004679"/></svg>
